X:1
T:Title
%%score { 1 | ( 2 3 ) }
L:1/8
Q:1/4=100
M:6/4
K:F
V:1 treble nm="Grand Piano"
V:2 bass 
V:3 bass 
V:1
 A2 _A2 =A2 B2 A2 B2 | c4 E2 F6 | F2 F2 F2 [EG]4 [EG]2 | A12 | A2 _A2 =A2 B4 B2 | c4 c2 d4 [DGB]2 | %6
w: Foss~L.~Fellers * * * * *||||||
 [CFA]4 [CFA]2 [CEA]4 [B,EG]2 |[M:10/4] [A,CF]12 z8 |[M:6/4][K:bass] [F,B,D]12 | [F,A,F]12 |] %10
w: ||||
V:2
 z6 .[CE]6 | [A,CE]4 [C,B,C]2 [F,A,C]6 | [D,A,D]2 [D,A,D]2 [D,A,D]2 [C,C]4 [C,C]2 | [F,CF]12 | %4
 [F,CF]2 [F,=B,F]2 [F,CF]2 [G,CE]4 [G,CE]2 | [A,CF]4 [A,_EF]2 [B,DF]4[K:bass] B,,2 | %6
 C,4 C,2 C,4 C,2 |[M:10/4] F,12 z8 |[M:6/4] B,,12 | F,,12 |] %10
V:3
 [F,CF]2 [F,=B,F]2 [F,CF]2 G,2 ^F,2 [G,CE]2 | x12 | x12 | x12 | x12 | x10[K:bass] x2 | x12 | %7
[M:10/4] x20 |[M:6/4] x12 | x12 |] %10

